src/assets/duotone/Bubble.svg

<svg width="24" height="24" viewBox="0 0 24 24"  xmlns="http://www.w3.org/2000/svg">
<path d="M15.59 1.75C12.62 1.75 10.21 4.16 10.21 7.13C10.21 10.1 12.62 12.51 15.59 12.51C18.56 12.51 20.97 10.1 20.97 7.13C20.97 4.16 18.56 1.75 15.59 1.75Z" />
<path opacity="0.4" d="M6.35977 13.0303C4.52977 13.0303 3.02979 14.5203 3.02979 16.3603C3.02979 18.2003 4.51977 19.6903 6.35977 19.6903C8.18977 19.6903 9.68979 18.2003 9.68979 16.3603C9.68979 14.5203 8.18977 13.0303 6.35977 13.0303Z" />
<path opacity="0.4" d="M16.6201 16.6201C15.0701 16.6201 13.8101 17.8801 13.8101 19.4301C13.8101 20.9801 15.0701 22.2401 16.6201 22.2401C18.1701 22.2401 19.4301 20.9801 19.4301 19.4301C19.4301 17.8801 18.1701 16.6201 16.6201 16.6201Z" />
</svg>

<?xml version="1.0" encoding="UTF-8"?>
<svg width="24" height="24" viewBox="0 0 24 24" xmlns="http://www.w3.org/2000/svg">
 <path d="m15.59 1.75c-2.97 0-5.38 2.41-5.38 5.38s2.41 5.38 5.38 5.38 5.38-2.41 5.38-5.38-2.41-5.38-5.38-5.38z"/>
 <path d="m6.3598 13.03c-1.83 0-3.33 1.49-3.33 3.33s1.49 3.33 3.33 3.33c1.83 0 3.33-1.49 3.33-3.33s-1.5-3.33-3.33-3.33z" opacity=".4"/>
 <path d="m16.62 16.62c-1.55 0-2.81 1.26-2.81 2.81s1.26 2.81 2.81 2.81 2.81-1.26 2.81-2.81-1.26-2.81-2.81-2.81z" opacity=".4"/>
</svg>
